!!!!SEGMENT: Arc2003-Dum_complerentur.krn
!!!id: Arc2003
!!!AGN: Motet
!!!voices: 5
!!!COM: Jacques Arcadelt
!!!OTL: Dum complerentur
**kern	**kern	**kern	**kern	**kern
*part5	*part4	*part3	*part2	*part1
*staff5	*staff4	*staff3	*staff2	*staff1
*I"Bassus	*I"Tenor II	*I"Tenor I	*I"Altus	*I"Superius
*I'B	*I'T. II	*I'T. I	*I'A	*I'S
*clefF4	*clefGv2	*clefGv2	*clefG2	*clefG2
*k[b-]	*k[b-]	*k[b-]	*k[b-]	*k[b-]
*F:	*F:	*F:	*F:	*F:
*M2/1	*M2/1	*M2/1	*M2/1	*M2/1
*met(C|)	*met(C|)	*met(C|)	*met(C|)	*met(C|)
!!section: Prima pars: Dum complerentur
!!!OMD: Prima pars: Dum complerentur
=1	=1	=1	=1	=1
0r	0r	0r	0g	0r
=2	=2	=2	=2	=2
0r	0r	0r	1e	1r
.	.	.	1f	[1cc
=3	=3	=3	=3	=3
0r	0r	0r	0g	1cc]
.	.	.	.	1b-y
=4	=4	=4	=4	=4
0r	0r	0r	1c	1cc
.	.	.	2r	[1dd
.	.	.	2g	.
=5	=5	=5	=5	=5
0r	0r	0r	2f	1dd]
.	.	.	2.g	.
.	.	.	.	1g
.	.	.	4a	.
.	.	.	2b-y	.
=6	=6	=6	=6	=6
0r	0r	0r	2a	1r
.	.	.	1g	.
.	.	.	.	1dd
.	.	.	4f	.
.	.	.	4e	.
=7	=7	=7	=7	=7
0r	0r	0r	2f	2dd
.	.	.	2g	2dd
.	.	.	2e	2.cc
.	.	.	[2f	.
.	.	.	.	4b-y
=8	=8	=8	=8	=8
0r	1r	0r	4f]	2.a
.	.	.	4e	.
.	.	.	2.d	.
.	.	.	.	4g
.	[1d	.	.	4f
.	.	.	4c	4e
.	.	.	4B-y	2d
.	.	.	4A	.
=9	=9	=9	=9	=9
0r	1d]	0r	4G	2r
.	.	.	4A	.
.	.	.	4B-y	2dd
.	.	.	4c	.
.	1B-y	.	4d	2dd
.	.	.	4e	.
.	.	.	4f	2dd
.	.	.	4d	.
=10	=10	=10	=10	=10
0r	1c	0r	4e	2.cc
.	.	.	4f	.
.	.	.	1g	.
.	.	.	.	4b-y
.	[1d	.	.	1a
.	.	.	2f#i	.
=11	=11	=11	=11	=11
0G	1d]	0r	2g	0g
.	.	.	2G	.
.	1G	.	1B-y	.
=12	=12	=12	=12	=12
1E	0r	1r	1G	0r
1F	.	[1d	1A	.
=13	=13	=13	=13	=13
0G	2r	1d]	1B-y	0r
.	2G	.	.	.
.	1d	1B-y	[1G	.
=14	=14	=14	=14	=14
1C	2e-i	1c	0G]	0r
.	1c	.	.	.
2r	.	[1d	.	.
2G	2B-y	.	.	.
=15	=15	=15	=15	=15
2F	2A	1d]	0r	0r
2.G	2.B-y	.	.	.
.	.	1G	.	.
4A	4c	.	.	.
2B-y	2d	.	.	.
=16	=16	=16	=16	=16
2A	2c	1r	2r	0r
1G	1B-y	.	4G	.
.	.	.	4A	.
.	.	1d	4B-y	.
.	.	.	4c	.
4F	4A	.	4d	.
4E	4G	.	4e	.
=17	=17	=17	=17	=17
2.D	2F	2d	4f	1r
.	.	.	4g	.
.	2.f	2d	2.a	.
4E	.	.	.	.
2F	.	2c	.	2r
.	4e	.	4g	.
2G	4d	2B-y	[2g	[2dd
.	4c	.	.	.
=18	=18	=18	=18	=18
1D	1d	1A	2g]	4dd]
.	.	.	.	4ee
.	.	.	2f	2ff
1G	2r	[1G	1g	2ee
.	2B-y	.	.	[2dd
=19	=19	=19	=19	=19
1C	2c	1G]	1e	2dd]
.	2c	.	.	2cc
2.D	2F	1r	2d	2b-y
.	2d	.	[2f	[2a
4E	.	.	.	.
=20	=20	=20	=20	=20
2F	2.c	1r	2f]	4a]
.	.	.	.	4g
2C	.	.	2e	1g
.	4B-y	.	.	.
1D	1A	2r	1d	.
.	.	2A	.	2f#i
=21	=21	=21	=21	=21
0G	1G	2B-y	0d	0g
.	.	2G	.	.
.	2.G	2.B-y	.	.
.	4A	4c	.	.
=22	=22	=22	=22	=22
0r	2B-y	2d	0r	1r
.	1c	1e-i	.	.
.	.	.	.	[1g
.	4B-y	4d	.	.
.	4A	4c	.	.
=23	=23	=23	=23	=23
0r	2B-y	2d	0r	2g]
.	2c	2.e-i	.	2g
.	1G	.	.	1g
.	.	4d	.	.
.	.	2B-y	.	.
=24	=24	=24	=24	=24
0r	2A	2c	0r	1f
.	1B-y	2.d	.	.
.	.	.	.	1b-y
.	.	4G	.	.
.	2G	[2g	.	.
=25	=25	=25	=25	=25
2r	1d	2g]	2r	2a
2D	.	2f#i	2d	2a
2E-X	1G	1g	2B-y	[1g
2C	.	.	2c	.
=26	=26	=26	=26	=26
2.G	0r	1d	2.B-y	0g_
4A	.	.	4c	.
2B-y	.	1r	2d	.
[2c	.	.	[2e-i	.
=27	=27	=27	=27	=27
2c]	1r	0r	2e-]	1g]
4B-y	.	.	4d	.
4A	.	.	4c	.
2B-y	2r	.	2d	1r
2c	[2g	.	[2e-i	.
=28	=28	=28	=28	=28
2G	4g]	1r	2e-]	1g
.	4f	.	.	.
2B-y	2d	.	1d	.
1A	2f	2r	.	[1a
.	2e	2e	2c#i	.
=29	=29	=29	=29	=29
1D	2d	2f	0d	0a]
.	2.f	2d	.	.
1r	.	2.f	.	.
.	4e	.	.	.
.	4d	.	.	.
.	4c	4e	.	.
=30	=30	=30	=30	=30
2.D	2B-y	4d	2r	0r
.	.	4c	.	.
.	2.A	2d	1f	.
4E	.	.	.	.
2F	.	2c	.	.
.	4G	.	.	.
2G	[2G	2B-y	2e	.
=31	=31	=31	=31	=31
1D	2G]	1A	1d	0r
.	2F#i	.	.	.
[1G	[1G	[1d	[1B-y	.
=32	=32	=32	=32	=32
1G]	1G]	1d]	2B-]	1.dd
.	.	.	2A	.
1r	1r	[1B-y	[1G	.
.	.	.	.	2dd
=33	=33	=33	=33	=33
1.G	1.d	2B-]	1G]	1dd
.	.	2B-y	.	.
.	.	1B-y	1r	[1b-y
2G	2d	.	.	.
=34	=34	=34	=34	=34
1G	1d	0G	2r	1b-]
.	.	.	1g	.
[1C	1c	.	.	[1ee-i
.	.	.	2g	.
=35	=35	=35	=35	=35
1C]	1c	2r	1g	1ee-]
.	.	2c	.	.
[1G	1B-y	1d	1g	[1dd
=36	=36	=36	=36	=36
1G]	1G	1B-y	1d	2dd]
.	.	.	.	2b-y
1F	[1A	1r	1f	1cc
=37	=37	=37	=37	=37
1D	2A]	2r	1f	1dd
.	2B-y	2d	.	.
2E	2c	2c	1r	2g
2F	2d	2A	.	[2dd
=38	=38	=38	=38	=38
2G	1G	2B-y	2r	2dd]
2E	.	2c	1g	2cc
1D	1r	[1d	.	2b-y
.	.	.	2f	2a
=39	=39	=39	=39	=39
0r	1r	2d]	2d	2f
.	.	2c	2e	2g
.	2r	2B-y	2f	1b-y
.	[2d	2G	2g	.
=40	=40	=40	=40	=40
1r	2d]	1A	1e	0a
.	2c	.	.	.
1D	2.f	2r	1d	.
.	.	2A	.	.
.	4e	.	.	.
=41	=41	=41	=41	=41
2.G	4d	2.B-y	2r	0r
.	4c	.	.	.
.	1d	.	2.g	.
4G	.	4G	.	.
2G	.	2B-y	.	.
.	.	.	4f	.
2G	4c	2B-y	4d	.
.	4B-y	.	4e	.
=42	=42	=42	=42	=42
2F	2A	2c	1f	0r
2D	2.f	2.d	.	.
2F	.	.	2r	.
.	4e	4c	.	.
2G	[2d	[2B-y	2d	.
=43	=43	=43	=43	=43
0E	2d]	4B-]	2.g	0r
.	.	4A	.	.
.	4c#i	4G	.	.
.	4BnXi	4F	4g	.
.	1c#i	2G	2g	.
.	.	2G	2g	.
=44	=44	=44	=44	=44
0D	1d	0A	2f	2r
.	.	.	2.d	2a
.	2r	.	.	2.dd
.	.	.	4c	.
.	2d	.	4d	.
.	.	.	4e	4dd
=45	=45	=45	=45	=45
1r	2d	0r	2f	2dd
.	2B-y	.	1g	2dd
2r	2c	.	.	2cc
[2d	2d	.	2f	2a
=46	=46	=46	=46	=46
2d]	2G	0r	2g	2b-y
2c	2A	.	2e	2cc
2B-y	1r	.	2f	[1dd
2G	.	.	[2g	.
=47	=47	=47	=47	=47
2B-y	1r	2r	4g]	1dd]
.	.	.	4f	.
2B-y	.	1d	2d	.
1A	2r	.	1e	1r
.	2c	2c	.	.
=48	=48	=48	=48	=48
2r	2.d	1B-y	1f	2r
1d	.	.	.	1ff
.	4e	.	.	.
.	2f	2A	2r	.
2c	[2g	2c	2e	[2ee
=49	=49	=49	=49	=49
1B-y	4g]	2d	2f	4ee]
.	4f	.	.	4dd
.	4e	2G	2g	1dd
.	4d	.	.	.
1A	1e	1c	1a	.
.	.	.	.	2cc#i
=50	=50	=50	=50	=50
0D	1d	1A	1f	1dd
.	1d	1r	2r	1dd
.	.	.	2b-y	.
=51	=51	=51	=51	=51
1r	2f	0r	2a	2cc
.	2g	.	2g	2b-y
2r	2d	.	2f	1a
2d	2f	.	[2a	.
=52	=52	=52	=52	=52
2c	2e	0r	2a]	0r
2B-y	1d	.	1g	.
1A	.	.	.	.
.	2c	.	2f	.
=53	=53	=53	=53	=53
2G	2B-y	1r	2e	2r
2F	2A	.	1d	2a
1E	1G	2r	.	2b-y
.	.	[2g	2c	2cc
=54	=54	=54	=54	=54
1D	0r	2g]	2B-y	1dd
.	.	2f	2A	.
1r	.	2e	2c	2cc
.	.	[2d	2d	[2b-y
=55	=55	=55	=55	=55
1r	0r	2d]	1e	4b-]
.	.	.	.	4a
.	.	2c	.	1a
2r	.	1B-y	1d	.
[2G	.	.	.	2g
=56	=56	=56	=56	=56
2G]	2r	1A	2c	1a
2F	1d	.	2A	.
1E-X	.	2G	2B-y	1r
.	2c	[2g	2c	.
=57	=57	=57	=57	=57
2D	1B-y	2g]	4d	0r
.	.	.	4e	.
1d	.	1f	4f	.
.	.	.	4g	.
.	1A	.	1a	.
2c	.	2e	.	.
=58	=58	=58	=58	=58
2B-y	1f	2d	1r	0r
2A	.	2c	.	.
2G	2e	2B-y	2r	.
2F	[2d	2A	2f	.
=59	=59	=59	=59	=59
1E	2d]	1G	2g	1r
.	2c#i	.	2e	.
1D	1d	2r	2.f	2r
.	.	[2d	.	2a
.	.	.	4e	.
=60	=60	=60	=60	=60
0r	0r	2d]	2f	2b-y
.	.	2e	1g	2g
.	.	2c	.	1a
.	.	2d	2f	.
=61	=61	=61	=61	=61
0r	2r	1G	4g	2b-y
.	.	.	4f	.
.	2B-y	.	4e	1dd
.	.	.	4d	.
.	2c	1r	1e	.
.	2A	.	.	2cc#i
=62	=62	=62	=62	=62
2r	1B-y	2r	1d	1dd
2G	.	1g	.	.
2A	2c	.	1r	1r
2F	[2d	[2f	.	.
=63	=63	=63	=63	=63
2G	2d]	2f]	2r	0r
2A	2c#i	2.e	2e	.
1D	1d	.	2f	.
.	.	4d	.	.
.	.	[2d	2d	.
=64	=64	=64	=64	=64
2r	1A	2d]	2f	0r
2A	.	2c#i	1e	.
2B-y	1r	1d	.	.
2G	.	.	[2d	.
=65	=65	=65	=65	=65
1A	1r	0r	2d]	2r
.	.	.	2c#i	2ee
1D	2r	.	1d	2ff
.	[2d	.	.	2dd
=66	=66	=66	=66	=66
2r	2d]	1r	1A	2ff
2A	2c	.	.	1ee
2B-y	2f	2r	2r	.
2G	2g	2B-y	2d	[2dd
=67	=67	=67	=67	=67
1A	1e	2c	1a	2dd]
.	.	2A	.	2cc
2.D	1r	2B-y	[1f	2b-y
.	.	2d	.	[2a
4E	.	.	.	.
=68	=68	=68	=68	=68
2F	1r	2c	2f]	4a]
.	.	.	.	4g
2G	.	2B-y	2e	1g
1D	2r	1A	1d	.
.	2A	.	.	2f#i
=69	=69	=69	=69	=69
1r	2B-y	2.G	0d	1g
.	2G	.	.	.
.	.	4A	.	.
1D	1d	2B-y	.	1f
.	.	2A	.	.
=70	=70	=70	=70	=70
2F	2c	1r	2r	1r
2G	2B-y	.	1g	.
1D	1G	1d	.	2r
.	.	.	2f	2a
=71	=71	=71	=71	=71
1r	1r	2c	2e	2a
.	.	2B-y	1d	2g
1D	1d	1A	.	1a
.	.	.	4c	.
.	.	.	4B-y	.
=72	=72	=72	=72	=72
2F	2c	1r	4A	2r
.	.	.	4G	.
2G	2B-y	.	1g	1dd
1D	1A	1d	.	.
.	.	.	2f#i	2ff
=73	=73	=73	=73	=73
1r	1G	2.B-y	1g	2ee
.	.	.	.	2.dd
.	.	4A	.	.
2r	[1B-y	2.G	2r	.
.	.	.	.	4cc
[2G	.	.	2g	4b-y
.	.	4A	.	4a
=74	=74	=74	=74	=74
2G]	2B-]	4B-y	2d	2b-y
.	.	4c	.	.
2D	2F	1d	2.f	2a
1F	1A	.	.	2r
.	.	.	4e	.
.	.	2A	4c	[2cc
.	.	.	4d	.
=75	=75	=75	=75	=75
1C	1G	1c	1e	2cc]
.	.	.	.	2g
2r	1g	2G	1d	2.b-y
[2G	.	[2B-y	.	.
.	.	.	.	4cc
=76	=76	=76	=76	=76
2G]	2d	2B-]	2r	1dd
2D	2f	2F	1d	.
1F	2e	1A	.	2r
.	4c	.	2A	[2cc
.	4d	.	.	.
=77	=77	=77	=77	=77
1C	1e-i	1G	1c	2cc]
.	.	.	.	2g
2r	2d	1r	2G	[1b-y
[2G	[2B-y	.	2g	.
=78	=78	=78	=78	=78
2G]	2B-]	2r	2d	2b-]
2D	2F	1d	2.f	4a
.	.	.	.	4g
1F	1A	.	.	2.f
.	.	.	4e	.
.	.	2A	[2c	.
.	.	.	.	8eL
.	.	.	.	8dJ
=79	=79	=79	=79	=79
2C	1G	4c	4c]	4e
.	.	4B-y	4B-y	4f
2E	.	4A	2c	1g
.	.	4G	.	.
1D	2r	1A	1d	.
.	2A	.	.	2f#i
=80	=80	=80	=80	=80
1G	2B-y	2.G	1r	2g
.	2G	.	.	2.dd
.	.	4F	.	.
2r	1d	4G	1g	.
.	.	4A	.	4cc
[2G	.	[2B-y	.	4b-y
.	.	.	.	4a
=81	=81	=81	=81	=81
2G]	2r	2B-]	2d	2b-y
2D	1d	2F	2.f	2a
1F	.	1A	.	2r
.	.	.	4e	.
.	2A	.	4c	[2cc
.	.	.	4d	.
=82	=82	=82	=82	=82
1C	1c	1G	1e	2cc]
.	.	.	.	2g
2r	2G	1g	1d	2.b-y
[2G	[2B-y	.	.	.
.	.	.	.	4cc
=83	=83	=83	=83	=83
2G]	2B-]	2d	2r	1dd
2D	2F	2.f	1d	.
1F	1A	.	.	2r
.	.	4e	.	.
.	.	4c	2A	[2cc
.	.	4d	.	.
=84	=84	=84	=84	=84
1C	1G	1e-i	1c	2cc]
.	.	.	.	2g
2r	1r	2d	2G	[1b-y
[2G	.	[2B-y	2g	.
=85	=85	=85	=85	=85
2G]	2r	2B-]	2d	2b-]
2D	1d	2F	2.f	4a
.	.	.	.	4g
1F	.	1A	.	2.f
.	.	.	4e	.
.	2A	.	[2c	.
.	.	.	.	8eL
.	.	.	.	8dJ
=86	=86	=86	=86	=86
2C	4c	1G	4c]	4e
.	4B-y	.	4B-y	4f
2E	4A	.	2c	1g
.	4G	.	.	.
1D	1A	2r	[1d	.
.	.	2A	.	2f#i
=87	=87	=87	=87	=87
2r	[0Gl	2B-y	1d]	[0gl
1G	.	2G	.	.
.	.	1B-y	2r	.
2G	.	.	2d	.
=88	=88	=88	=88	=88
0C	0G_	2c	2e	0g_
.	.	2d	2d	.
.	.	1e-i	1c	.
=89	=89	=89	=89	=89
00Gl	00G]	00dl	00BnXl	00g]
==	==	==	==	==
*-	*-	*-	*-	*-
!!!system-decoration: [*]
!!!RDF**kern: i = editorial accidental
!!!RDF**kern: l = terminal long
!!!ENC: Benjamin Ory
!!!END: 2025/1/5
!!!EED: Benjamin Ory
!!!EEV: 2025/02/20
!!!YEC: Copyright 2025 Benjamin Ory, All Rights Reserved
!!!ONB: Translated from MusicXML on 2025/02/20